X:1
T:My Name is Morgan (but it ain't J.P)
M:4/4
L:1/4
K:E
 z2 z B,| E E D F| E B, B, B,| C C =C/2 C3/2| C3 C| D D C D| F D C B,|\
 E B, C/2 C3/2| B,3 B,| E E D F| E B, ^A, B,| C =C ^C E| C2 z C| E E E F|\
 E B, B, C| D D F D| E4-| E2 z B,| E E D F| E B, =D B,| C C C C| C3 C|\
 D D C D| F E D B,| E B, D C| B,3 B,| E E D F| E B, =D D/2D/2| C A, C E/2E/2|\
 F D C B,| E3 F| E B, E F| G2 D- F| E4-| E2 z B,| E3 F| E B, B, B,|\
 C2 C2| C2 z2| D/2 D3/2 D D| F D C B,| E2 C2| B,2 z B,| E E D F| E B, =D D/2D/2|\
 C A, C E/2E/2| F/2 E3/2 C B,| E3 F| E B, E F| G2 D- F| E4|
